brandFactory_export/1.Light/Saldo_1Light.svg

<?xml version="1.0" encoding="UTF-8"?>
<svg width="24px" height="24px" viewBox="0 0 24 24" version="1.1" xmlns="http://www.w3.org/2000/svg" xmlns:xlink="http://www.w3.org/1999/xlink">
    <title>1.Light/Saldo_1Light</title>
    <g id="Symbols" stroke="none" stroke-width="1" fill="none" fill-rule="evenodd">
        <g id="1.Light/Saldo_1Light" fill="#5CB615" fill-rule="nonzero">
            <path d="M13.1915966,-4.30766534e-14 C13.2455182,-4.30766534e-14 13.2965803,0.0128676471 13.3418639,0.0356838916 C13.3739446,0.0514353661 13.403825,0.0724427702 13.4302521,0.0974789916 L19.9848739,6.65210084 C20.0487395,6.71596639 20.0823529,6.8 20.0823529,6.8907563 L20.0823529,22.6218487 C20.0823529,23.1495798 19.6184874,23.6134454 19.0907563,23.6134454 L4.01512605,23.6134454 C3.49747899,23.6134454 3.02352941,23.1394958 3.02352941,22.6218487 L3.02352941,0.991596639 C3.02352941,0.490756303 3.51428571,7.46069873e-14 4.01512605,7.46069873e-14 L13.1915966,-4.30766534e-14 L13.1915966,-4.30766534e-14 Z M12.8545294,0.672 L4.01512605,0.672268908 C3.88739496,0.672268908 3.69579832,0.863865546 3.69579832,0.991596639 L3.69579832,22.6218487 C3.69579832,22.7663866 3.87058824,22.9411765 4.01512605,22.9411765 L19.0907563,22.9411765 C19.2453782,22.9411765 19.410084,22.7764706 19.410084,22.6218487 L19.4095294,7.226 L16.4689076,7.22689076 C15.4134454,7.22689076 14.5092437,6.88067227 13.8537815,6.22857143 C13.1983193,5.57647059 12.8554622,4.67226891 12.8554622,3.61344538 L12.8545294,0.672 Z M10.2773109,11.4991597 C10.4621849,11.4991597 10.6134454,11.6504202 10.6134454,11.8352941 L10.6134454,20.6386555 C10.6134454,20.8235294 10.4621849,20.9747899 10.2773109,20.9747899 C10.092437,20.9747899 9.94117647,20.8235294 9.94117647,20.6386555 L9.94117647,11.8352941 C9.94117647,11.6504202 10.092437,11.4991597 10.2773109,11.4991597 Z M15.1411765,13.0084034 C15.3260504,13.0084034 15.4773109,13.1596639 15.4773109,13.3445378 L15.477869,13.7859836 C15.959876,13.8293152 16.4067037,13.968303 16.7613445,14.1882353 C16.9159664,14.2823529 17,14.4168067 17,14.5613445 C17,14.7731092 16.8285714,14.9478992 16.6134454,14.9478992 C16.5294118,14.9445378 16.4453782,14.9210084 16.3714286,14.8806723 L16.3680672,14.8773109 C16.0646292,14.7133565 15.7754432,14.6117543 15.4771642,14.5686134 L15.4765294,16.567 L15.4840336,16.5680672 C16.3378151,16.6756303 17.3563025,17.0655462 17.3563025,18.3193277 C17.3502122,19.3668555 16.6406587,20.0557551 15.4775587,20.1760962 L15.4773109,20.6218487 C15.4773109,20.8067227 15.3260504,20.9579832 15.1411765,20.9579832 C14.9563025,20.9579832 14.805042,20.8067227 14.805042,20.6218487 L14.8047108,20.179434 C14.22471,20.1241269 13.6683581,19.9234145 13.1882353,19.589916 C13.0571429,19.4991597 12.9932773,19.3815126 12.9932773,19.2302521 C12.9966387,19.0084034 13.1747899,18.8336134 13.3966387,18.8336134 C13.4941176,18.8369748 13.5848739,18.8672269 13.6655462,18.9210084 C14.0439761,19.1741473 14.4262961,19.331978 14.8051082,19.3930208 L14.8045294,17.291 L14.7850303,17.2885685 C13.4299789,17.0490636 13.1378151,16.2427475 13.1378151,15.5932773 C13.1378151,14.5956793 13.7806127,13.915377 14.8046553,13.7917158 L14.805042,13.3445378 C14.805042,13.1596639 14.9563025,13.0084034 15.1411765,13.0084034 Z M6.96638655,6.23865546 C7.1512605,6.23865546 7.30252101,6.38991597 7.30252101,6.57478992 L7.30252101,20.6218487 C7.30252101,20.8067227 7.1512605,20.9579832 6.96638655,20.9579832 C6.78151261,20.9579832 6.6302521,20.8067227 6.6302521,20.6218487 L6.6302521,6.57478992 C6.6302521,6.38991597 6.78151261,6.23865546 6.96638655,6.23865546 Z M15.4788864,17.3862431 L15.4773399,19.4017428 C16.1470715,19.312339 16.5495798,18.9298528 16.5495798,18.3563025 C16.5495798,17.9715686 16.4156876,17.5606384 15.4788864,17.3862431 Z M13.9445378,15.5462185 C13.9445378,15.8768512 14.052144,16.2650406 14.8028427,16.4581583 L14.8038188,14.5738835 C14.2659788,14.6744111 13.9445378,15.027591 13.9445378,15.5462185 Z M18.9355294,6.554 L13.5275294,1.15 L13.5277311,3.61344538 C13.5277311,5.39831933 14.6840336,6.55462185 16.4689076,6.55462185 L18.9355294,6.554 Z" id="Saldo_1Light"></path>
        </g>
    </g>
</svg>

<svg width="24" height="24" viewBox="0 0 24 24" xmlns="http://www.w3.org/2000/svg"><path d="M13.192 0a.36.36 0 01.239.097l6.554 6.555a.333.333 0 01.097.239v15.73c0 .529-.464.992-.991.992H4.015c-.518 0-.991-.474-.991-.991V.992c0-.501.49-.992.991-.992h9.177zm-.337.672h-8.84c-.128 0-.32.192-.32.32v21.63c0 .144.176.32.32.32h15.076c.154 0 .32-.166.32-.32L19.41 7.226h-2.941c-1.056 0-1.96-.345-2.615-.997-.656-.653-.999-1.557-.999-2.616V.672zm-2.578 10.827c.185 0 .336.151.336.336v8.804a.337.337 0 01-.336.336.337.337 0 01-.336-.336v-8.804c0-.185.151-.336.336-.336zm4.864 1.51c.185 0 .336.15.336.336v.441c.483.043.93.182 1.284.402.155.094.239.229.239.373a.387.387 0 01-.387.387.556.556 0 01-.242-.067l-.003-.004a2.653 2.653 0 00-.89-.308l-.001 1.998.007.001c.854.108 1.872.498 1.872 1.751-.006 1.048-.715 1.737-1.878 1.857v.446a.337.337 0 01-.337.336.337.337 0 01-.336-.336v-.443a3.394 3.394 0 01-1.617-.59.414.414 0 01-.195-.359.401.401 0 01.404-.396.511.511 0 01.269.087c.378.253.76.411 1.14.472l-.001-2.102-.02-.002c-1.355-.24-1.647-1.046-1.647-1.696 0-.997.643-1.678 1.667-1.801v-.447c0-.185.151-.337.336-.337zm-8.175-6.77c.185 0 .337.15.337.336v14.047a.337.337 0 01-.337.336.337.337 0 01-.336-.336V6.575c0-.185.152-.336.336-.336zm8.513 11.147l-.002 2.016c.67-.09 1.073-.472 1.073-1.046 0-.384-.134-.795-1.071-.97zm-1.534-1.84c0 .33.107.719.858.912v-1.884c-.537.1-.858.454-.858.972zm4.99-8.992L13.529 1.15v2.463c0 1.785 1.156 2.942 2.94 2.942l2.468-.001z" fill="#5CB615" fill-rule="nonzero"/></svg>
